assets/img/braze_icons/file-heart-02.svg

<svg fill="none" height="24" viewBox="0 0 24 24" width="24" xmlns="http://www.w3.org/2000/svg"><g fill="#801ed7"><path clip-rule="evenodd" d="m8.7587 1h6.4826c.8049-.000011 1.4693-.000021 2.0105.0442.5621.04592 1.0788.14449 1.5642.39178.7526.38349 1.3645.99541 1.748 1.74806.2473.48534.3459 1.00204.3918 1.56414.0442.54119.0442 1.20554.0442 2.0105v4.35872c0 .3261 0 .4891-.0522.5942-.0524.1054-.1069.1618-.2104.2176-.1033.0557-.2981.0622-.6876.0753-.718.024-1.4192.2149-2.0543.5418-1.5739-.8106-3.5652-.8027-5.1961.552-2.0734 1.7224-2.4076 4.6984-.7295 6.7978.4791.5994 1.3029 1.3961 2.0381 2.0775.1387.1286.2081.1929.2368.2324.217.2984.0543.7132-.3077.7846-.0479.0094-.1403.0094-.3252.0094h-4.95322c-.80496 0-1.46931 0-2.0105-.0442-.5621-.0459-1.0788-.1445-1.56414-.3918-.75265-.3835-1.36457-.9954-1.74806-1.748-.24729-.4854-.34586-1.0021-.39178-1.5642-.04422-.5412-.04421-1.2055-.0442-2.0105v-10.48261c-.00001-.80495-.00002-1.46933.0442-2.01051.04592-.5621.14449-1.0788.39178-1.56414.38349-.75265.99541-1.36457 1.74806-1.74806.48534-.24729 1.00204-.34586 1.56414-.39178.54118-.044221 1.20558-.044211 2.01052-.0442zm-1.7587 7c-.55228 0-1 .44772-1 1 0 .55229.44772 1 1 1h6c.5523 0 1-.44771 1-1 0-.55228-.4477-1-1-1zm-1 5c0-.5523.44772-1 1-1h2c.55229 0 1 .4477 1 1s-.44771 1-1 1h-2c-.55228 0-1-.4477-1-1zm1-9c-.55228 0-1 .44772-1 1 0 .55229.44772 1 1 1h9c.5523 0 1-.44771 1-1 0-.55228-.4477-1-1-1z" fill-rule="evenodd"/><path d="m17.9966 15.0382c-.9997-1.1362-2.6667-1.4418-3.9193-.4014-1.2525 1.0405-1.4288 2.7801-.4452 4.0106.7451.9322 2.8657 2.8062 3.8504 3.6603.1791.1553.2687.233.3731.2637.0907.0266.1913.0266.2819 0 .1044-.0307.194-.1084.3731-.2637.9847-.8541 3.1054-2.7281 3.8505-3.6603.9836-1.2305.8288-2.9811-.4453-4.0106s-2.9195-.7348-3.9192.4014z"/></g></svg>

<svg width="24" height="24" viewBox="0 0 24 24" fill="none" xmlns="http://www.w3.org/2000/svg">
<path fill-rule="evenodd" clip-rule="evenodd" d="M8.7587 1H15.2413C16.0462 0.999989 16.7106 0.999979 17.2518 1.0442C17.8139 1.09012 18.3306 1.18869 18.816 1.43598C19.5686 1.81947 20.1805 2.43139 20.564 3.18404C20.8113 3.66938 20.9099 4.18608 20.9558 4.74818C21 5.28937 21 5.95372 21 6.75868V11.1174C21 11.4435 21 11.6065 20.9478 11.7116C20.8954 11.817 20.8409 11.8734 20.7374 11.9292C20.6341 11.9849 20.4393 11.9914 20.0498 12.0045C19.3318 12.0285 18.6306 12.2194 17.9955 12.5463C16.4216 11.7357 14.4303 11.7436 12.7994 13.0983C10.726 14.8207 10.3918 17.7967 12.0699 19.8961C12.549 20.4955 13.3728 21.2922 14.108 21.9736C14.2467 22.1022 14.3161 22.1665 14.3448 22.206C14.5618 22.5044 14.3991 22.9192 14.0371 22.9906C13.9892 23 13.8968 23 13.7119 23H8.75868C7.95372 23 7.28937 23 6.74818 22.9558C6.18608 22.9099 5.66938 22.8113 5.18404 22.564C4.43139 22.1805 3.81947 21.5686 3.43598 20.816C3.18869 20.3306 3.09012 19.8139 3.0442 19.2518C2.99998 18.7106 2.99999 18.0463 3 17.2413V6.75869C2.99999 5.95374 2.99998 5.28936 3.0442 4.74818C3.09012 4.18608 3.18869 3.66938 3.43598 3.18404C3.81947 2.43139 4.43139 1.81947 5.18404 1.43598C5.66938 1.18869 6.18608 1.09012 6.74818 1.0442C7.28936 0.999979 7.95376 0.999989 8.7587 1ZM7 8C6.44772 8 6 8.44772 6 9C6 9.55229 6.44772 10 7 10H13C13.5523 10 14 9.55229 14 9C14 8.44772 13.5523 8 13 8H7ZM6 13C6 12.4477 6.44772 12 7 12H9C9.55229 12 10 12.4477 10 13C10 13.5523 9.55229 14 9 14H7C6.44772 14 6 13.5523 6 13ZM7 4C6.44772 4 6 4.44772 6 5C6 5.55229 6.44772 6 7 6H16C16.5523 6 17 5.55229 17 5C17 4.44772 16.5523 4 16 4H7Z" fill="#801ED7"/>
<path d="M17.9966 15.0382C16.9969 13.902 15.3299 13.5964 14.0773 14.6368C12.8248 15.6773 12.6485 17.4169 13.6321 18.6474C14.3772 19.5796 16.4978 21.4536 17.4825 22.3077C17.6616 22.463 17.7512 22.5407 17.8556 22.5714C17.9463 22.598 18.0469 22.598 18.1375 22.5714C18.2419 22.5407 18.3315 22.463 18.5106 22.3077C19.4953 21.4536 21.616 19.5796 22.3611 18.6474C23.3447 17.4169 23.1899 15.6663 21.9158 14.6368C20.6417 13.6073 18.9963 13.902 17.9966 15.0382Z" fill="#801ED7"/>
</svg>
